COLOR/categories 16/16/preferences-desktop-wallpaper.svg

<svg height="16" viewBox="0 0 16 16" width="16" xmlns="http://www.w3.org/2000/svg" xmlns:xlink="http://www.w3.org/1999/xlink"><linearGradient id="a" gradientTransform="matrix(-.33252856 0 0 .33252856 122.40823 -19.601973)" gradientUnits="userSpaceOnUse" x1="320.79483" x2="367.20901" y1="99.180145" y2="70.817093"><stop offset="0" stop-color="#fb7c38"/><stop offset="1" stop-color="#9b33ae"/></linearGradient><path d="m.5361679 5.414417c0-2.7372221.3013872-3.2500178 3.2416148-3.2356359h4.2402612 4.2403401c2.940228-.014398 3.241615.4984138 3.241615 3.2356359v5.832208c0 2.736543-.301354 3.235636-3.241615 3.235636h-4.2403401-4.2402612c-2.9402609 0-3.2416148-.499093-3.2416148-3.235639z" fill="url(#a)"/><path d="m3.6320726 2.196441c-.6389392.0005986-1.1477587.016836-1.5637359.093595-.4239422.078228-.7695446.2246946-1.0233278.5033854-.2538739.278787-.3875423.6594387-.4587719 1.1250286-.025352.1657379-.041645.3499418-.054619.5438588-.023423.3502274-.031618.7446412-.031618 1.2078724v5.3549938c0 .719725.015121 1.286965.086237 1.752996.071204.466607.2045483.847255.4581955 1.126925.2536926.279722.6001335.42706 1.0244805.504652.4236153.07746.9397912.09332 1.5953572.0898h.073586v-12.303107z" opacity=".3"/><path d="m10.160569 2.1411927 5.320456 5.3204571v-1.7522696c0-.4757274-.0091-.8808097-.03572-1.2404875-.01476-.1991634-.03371-.3883232-.06235-.5585443-.08047-.4781627-.230825-.8690919-.517627-1.1554067-.2867-.286216-.677773-.4366379-1.156707-.5169778-.475493-.079767-.984391-.096771-1.80163-.096771z" fill="#5d5d5d"/><path d="m15.481025 7.2955857-5.154192-5.1545918v1.9120525.08314.044652c0 2.9343585.135206 3.1291258 3.075693 3.1147446z" fill="#faf8f6"/><path d="m3.7773438 2.1796875c-2.94022765-.0143819-3.24023442.4971529-3.24023442 3.234375v.5c0-2.7372221.30000677-3.25071 3.24023442-3.2363281h4.2402343 4.2402339c2.940228-.014398 3.242188.499106 3.242188 3.2363281v-.5c0-2.7372221-.30196-3.248773-3.242188-3.234375h-4.2402339z" fill="#fff" opacity=".3"/><path d="m12.259851 14.499709c2.940249.01438 3.240258-.497153 3.240258-3.234375v-.5c0 2.737222-.300009 3.25071-3.240258 3.236328h-4.2402653-4.2402648c-2.9402495.014398-3.2422117-.499106-3.2422117-3.236328v.5c0 2.737222.3019622 3.248773 3.2422117 3.234375h4.2402648z" fill="#030000" opacity=".2"/></svg>

<?xml version="1.0" encoding="UTF-8" standalone="no"?>
<svg
   xmlns:dc="http://purl.org/dc/elements/1.1/"
   xmlns:cc="http://creativecommons.org/ns#"
   xmlns:rdf="http://www.w3.org/1999/02/22-rdf-syntax-ns#"
   xmlns:svg="http://www.w3.org/2000/svg"
   xmlns="http://www.w3.org/2000/svg"
   xmlns:xlink="http://www.w3.org/1999/xlink"
   xmlns:sodipodi="http://sodipodi.sourceforge.net/DTD/sodipodi-0.dtd"
   xmlns:inkscape="http://www.inkscape.org/namespaces/inkscape"
   width="16"
   height="16"
   version="1.1"
   viewBox="0 0 16 16"
   id="svg65"
   sodipodi:docname="preferences-desktop-wallpaper.svg"
   inkscape:version="0.92.4 (5da689c313, 2019-01-14)">
  <metadata
     id="metadata69">
    <rdf:RDF>
      <cc:Work
         rdf:about="">
        <dc:format>image/svg+xml</dc:format>
        <dc:type
           rdf:resource="http://purl.org/dc/dcmitype/StillImage" />
        <dc:title></dc:title>
      </cc:Work>
    </rdf:RDF>
  </metadata>
  <sodipodi:namedview
     pagecolor="#ffffff"
     bordercolor="#666666"
     borderopacity="1"
     objecttolerance="10"
     gridtolerance="10"
     guidetolerance="10"
     inkscape:pageopacity="0"
     inkscape:pageshadow="2"
     inkscape:window-width="1920"
     inkscape:window-height="1016"
     id="namedview67"
     showgrid="false"
     inkscape:zoom="67.885719"
     inkscape:cx="7.9999995"
     inkscape:cy="7.6795031"
     inkscape:window-x="0"
     inkscape:window-y="27"
     inkscape:window-maximized="1"
     inkscape:current-layer="svg65" />
  <defs
     id="defs18">
    <clipPath
       id="clipPath1082-3-361"
       clipPathUnits="userSpaceOnUse">
      <path
         style="fill:#8c59d9"
         d="M 361.9375,-212 C 507.2348,-212 528,-191.28677 528,-46.125 V 70.125 C 528,215.28618 507.2348,236 361.9375,236 H 214.0625 C 68.7652,236 48,215.28618 48,70.125 V -46.125 C 48,-191.28677 68.7652,-212 214.0625,-212 Z"
         id="path2"
         inkscape:connector-curvature="0" />
    </clipPath>
    <clipPath
       id="clipPath1082-3"
       clipPathUnits="userSpaceOnUse">
      <path
         style="fill:#8c59d9"
         d="M 361.9375,-212 C 507.2348,-212 528,-191.28677 528,-46.125 V 70.125 C 528,215.28618 507.2348,236 361.9375,236 H 214.0625 C 68.7652,236 48,215.28618 48,70.125 V -46.125 C 48,-191.28677 68.7652,-212 214.0625,-212 Z"
         id="path5"
         inkscape:connector-curvature="0" />
    </clipPath>
    <clipPath
       id="clipPath951"
       clipPathUnits="userSpaceOnUse">
      <path
         style="fill:#8c59d9"
         d="M 188.96875,44 C 261.6174,44 272,54.356615 272,126.9375 v 58.125 C 272,257.64309 261.6174,268 188.96875,268 h -73.9375 C 42.3826,268 32,257.64309 32,185.0625 v -58.125 C 32,54.356615 42.3826,44 115.03125,44 Z"
         id="path8"
         inkscape:connector-curvature="0" />
    </clipPath>
    <clipPath
       id="clipPath951-3"
       clipPathUnits="userSpaceOnUse">
      <path
         style="fill:#8c59d9"
         d="M 188.96875,44 C 261.6174,44 272,54.356615 272,126.9375 v 58.125 C 272,257.64309 261.6174,268 188.96875,268 h -73.9375 C 42.3826,268 32,257.64309 32,185.0625 v -58.125 C 32,54.356615 42.3826,44 115.03125,44 Z"
         id="path11"
         inkscape:connector-curvature="0" />
    </clipPath>
    <filter
       id="filter11191"
       width="1.024"
       height="1.024"
       x="-0.0099999998"
       y="-0.0099999998"
       style="color-interpolation-filters:sRGB">
      <feGaussianBlur
         id="feGaussianBlur11193"
         stdDeviation="1.12" />
    </filter>
    <filter
       id="filter11210"
       width="1.096"
       height="1.096"
       x="-0.050000001"
       y="-0.050000001"
       style="color-interpolation-filters:sRGB">
      <feGaussianBlur
         id="feGaussianBlur11212"
         stdDeviation="4.48" />
    </filter>
    <clipPath
       clipPathUnits="userSpaceOnUse"
       id="clipPath951-3-3">
      <path
         style="opacity:1;fill:#8c59d9;fill-opacity:1;stroke:none;stroke-width:2;stroke-linecap:round;stroke-linejoin:round;stroke-miterlimit:4;stroke-dasharray:none;stroke-dashoffset:0;stroke-opacity:1"
         d="M 188.96875,44 C 261.6174,44 272,54.356615 272,126.9375 v 58.125 C 272,257.64309 261.6174,268 188.96875,268 h -73.9375 C 42.3826,268 32,257.64309 32,185.0625 v -58.125 C 32,54.356615 42.3826,44 115.03125,44 Z"
         id="path953-1"
         inkscape:connector-curvature="0"
         sodipodi:nodetypes="sssssssss" />
    </clipPath>
    <clipPath
       clipPathUnits="userSpaceOnUse"
       id="clipPath994">
      <path
         style="color:#000000;display:inline;overflow:visible;visibility:visible;fill:#cdcdcd;fill-opacity:1;fill-rule:nonzero;stroke:none;stroke-width:2;stroke-miterlimit:4;stroke-dasharray:none;stroke-opacity:1;marker:none;enable-background:accumulate"
         d="m 335.73108,62 c -8.82418,0 -9.77365,0.90635 -9.7304,9.74838 V 84 96.25162 c -0.0433,8.84203 0.90622,9.74838 9.7304,9.74838 h 16.53919 c 8.82418,0 9.7304,-0.90625 9.7304,-9.74838 V 84 71.74838 C 362.00067,62.90625 361.09445,62 352.27027,62 Z"
         id="path996"
         inkscape:connector-curvature="0"
         sodipodi:nodetypes="scccssscsss" />
    </clipPath>
    <clipPath
       clipPathUnits="userSpaceOnUse"
       id="clipPath994-6">
      <path
         style="color:#000000;display:inline;overflow:visible;visibility:visible;fill:#cdcdcd;fill-opacity:1;fill-rule:nonzero;stroke:none;stroke-width:2;stroke-miterlimit:4;stroke-dasharray:none;stroke-opacity:1;marker:none;enable-background:accumulate"
         d="m 335.73108,62 c -8.82418,0 -9.77365,0.90635 -9.7304,9.74838 V 84 96.25162 c -0.0433,8.84203 0.90622,9.74838 9.7304,9.74838 h 16.53919 c 8.82418,0 9.7304,-0.90625 9.7304,-9.74838 V 84 71.74838 C 362.00067,62.90625 361.09445,62 352.27027,62 Z"
         id="path996-7"
         inkscape:connector-curvature="0"
         sodipodi:nodetypes="scccssscsss" />
    </clipPath>
    <clipPath
       clipPathUnits="userSpaceOnUse"
       id="clipPath994-5">
      <path
         style="color:#000000;display:inline;overflow:visible;visibility:visible;fill:#cdcdcd;fill-opacity:1;fill-rule:nonzero;stroke:none;stroke-width:2;stroke-miterlimit:4;stroke-dasharray:none;stroke-opacity:1;marker:none;enable-background:accumulate"
         d="m 335.73108,62 c -8.82418,0 -9.77365,0.90635 -9.7304,9.74838 V 84 96.25162 c -0.0433,8.84203 0.90622,9.74838 9.7304,9.74838 h 16.53919 c 8.82418,0 9.7304,-0.90625 9.7304,-9.74838 V 84 71.74838 C 362.00067,62.90625 361.09445,62 352.27027,62 Z"
         id="path996-3"
         inkscape:connector-curvature="0"
         sodipodi:nodetypes="scccssscsss" />
    </clipPath>
    <clipPath
       clipPathUnits="userSpaceOnUse"
       id="clipPath983-7">
      <path
         id="path985-3"
         d="M 115.03125,44 C 42.3826,44 32,54.356615 32,126.9375 v 58.125 C 32,257.64309 42.3826,268 115.03125,268 H 152 V 44 Z"
         style="opacity:1;fill:#4d4d4d;fill-opacity:1;stroke:none;stroke-width:2;stroke-linecap:round;stroke-linejoin:round;stroke-miterlimit:4;stroke-dasharray:none;stroke-dashoffset:0;stroke-opacity:1"
         inkscape:connector-curvature="0" />
    </clipPath>
    <clipPath
       clipPathUnits="userSpaceOnUse"
       id="clipPath994-3">
      <path
         style="color:#000000;display:inline;overflow:visible;visibility:visible;fill:#cdcdcd;fill-opacity:1;fill-rule:nonzero;stroke:none;stroke-width:2;stroke-miterlimit:4;stroke-dasharray:none;stroke-opacity:1;marker:none;enable-background:accumulate"
         d="m 335.73108,62 c -8.82418,0 -9.77365,0.90635 -9.7304,9.74838 V 84 96.25162 c -0.0433,8.84203 0.90622,9.74838 9.7304,9.74838 h 16.53919 c 8.82418,0 9.7304,-0.90625 9.7304,-9.74838 V 84 71.74838 C 362.00067,62.90625 361.09445,62 352.27027,62 Z"
         id="path996-7-5"
         inkscape:connector-curvature="0"
         sodipodi:nodetypes="scccssscsss" />
    </clipPath>
    <linearGradient
       inkscape:collect="always"
       xlink:href="#linearGradient1674"
       id="linearGradient16503"
       x1="320.79483"
       y1="99.180145"
       x2="367.20901"
       y2="70.817093"
       gradientUnits="userSpaceOnUse"
       gradientTransform="matrix(-0.33252856,0,0,0.33252856,122.40823,-19.601973)" />
    <linearGradient
       inkscape:collect="always"
       id="linearGradient1674">
      <stop
         id="stop1670"
         offset="0"
         style="stop-color:#fb7c38;stop-opacity:1" />
      <stop
         id="stop1672"
         offset="1"
         style="stop-color:#9b33ae;stop-opacity:1" />
    </linearGradient>
  </defs>
  <clipPath
     id="b">
    <use
       id="use5"
       width="100%"
       height="100%"
       x="0"
       y="0"
       overflow="visible"
       xlink:href="#a"
       style="overflow:visible" />
  </clipPath>
  <path
     style="color:#000000;display:inline;overflow:visible;visibility:visible;fill:url(#linearGradient16503);fill-opacity:1;fill-rule:nonzero;stroke:none;stroke-width:0.33252856;marker:none;enable-background:accumulate"
     d="m 0.5361679,5.414417 c 0,-2.7372221 0.3013872,-3.2500178 3.2416148,-3.2356359 h 4.2402612 4.2403401 c 2.940228,-0.014398 3.241615,0.4984138 3.241615,3.2356359 v 5.832208 c 0,2.736543 -0.301354,3.235636 -3.241615,3.235636 H 8.0180439 3.7777827 c -2.9402609,0 -3.2416148,-0.499093 -3.2416148,-3.235639 z"
     id="path964"
     inkscape:connector-curvature="0"
     sodipodi:nodetypes="scccssscsss" />
  <path
     style="display:inline;opacity:0.3;vector-effect:none;fill:#000000;fill-opacity:1;stroke:none;stroke-width:0.32378566;stroke-linecap:butt;stroke-linejoin:miter;stroke-miterlimit:4;stroke-dasharray:none;stroke-dashoffset:0;stroke-opacity:1;enable-background:new"
     d="M 3.6320726,2.196441 C 2.9931334,2.1970396 2.4843139,2.213277 2.0683367,2.290036 1.6443945,2.368264 1.2987921,2.5147306 1.0450089,2.7934214 0.791135,3.0722084 0.6574666,3.4528601 0.586237,3.91845 0.560885,4.0841879 0.544592,4.2683918 0.531618,4.4623088 0.508195,4.8125362 0.5,5.20695 0.5,5.6701812 v 5.3549938 c 0,0.719725 0.015121,1.286965 0.086237,1.752996 0.071204,0.466607 0.2045483,0.847255 0.4581955,1.126925 0.2536926,0.279722 0.6001335,0.42706 1.0244805,0.504652 0.4236153,0.07746 0.9397912,0.09332 1.5953572,0.0898 h 0.073586 V 2.196441 Z"
     id="rect1767-6"
     inkscape:connector-curvature="0"
     sodipodi:nodetypes="cccccssccccccc"
     inkscape:export-xdpi="95.996666"
     inkscape:export-ydpi="95.996666" />
  <path
     style="color:#000000;display:inline;overflow:visible;visibility:visible;fill:#5d5d5d;fill-opacity:1;fill-rule:nonzero;stroke:none;stroke-width:0.08313975;marker:none;enable-background:accumulate"
     d="m 10.160569,2.1411927 5.320456,5.3204571 V 5.7093802 c 0,-0.4757274 -0.0091,-0.8808097 -0.03572,-1.2404875 C 15.430545,4.2697293 15.411595,4.0805695 15.382955,3.9103484 15.302485,3.4321857 15.15213,3.0412565 14.865328,2.7549417 14.578628,2.4687257 14.187555,2.3183038 13.708621,2.2379639 13.233128,2.1581969 12.72423,2.1411929 11.906991,2.1411929 Z"
     id="rect4158-0-0"
     inkscape:connector-curvature="0"
     sodipodi:nodetypes="ccsccccsc" />
  <path
     inkscape:connector-curvature="0"
     style="color:#000000;display:inline;overflow:visible;visibility:visible;fill:#faf8f6;fill-opacity:1;fill-rule:nonzero;stroke:none;stroke-width:0.08313975;marker:none;enable-background:accumulate"
     d="M 15.481025,7.2955857 10.326833,2.1409939 v 1.9120525 0.08314 0.044652 c 0,2.9343585 0.135206,3.1291258 3.075693,3.1147446 z"
     id="rect4158-0-3-62"
     sodipodi:nodetypes="ccccscc" />
  <path
     style="color:#000000;display:inline;overflow:visible;visibility:visible;fill:#ffffff;fill-opacity:1;fill-rule:nonzero;stroke:none;stroke-width:0.33252856;marker:none;enable-background:accumulate;opacity:0.3"
     d="M 3.7773438 2.1796875 C 0.83711615 2.1653056 0.53710938 2.6768404 0.53710938 5.4140625 L 0.53710938 5.9140625 C 0.53710938 3.1768404 0.83711615 2.6633525 3.7773438 2.6777344 L 8.0175781 2.6777344 L 12.257812 2.6777344 C 15.19804 2.6633364 15.5 3.1768404 15.5 5.9140625 L 15.5 5.4140625 C 15.5 2.6768404 15.19804 2.1652895 12.257812 2.1796875 L 8.0175781 2.1796875 L 3.7773438 2.1796875 z "
     id="path860" />
  <path
     id="path869"
     d="m 12.259851,14.499709 c 2.940249,0.01438 3.240258,-0.497153 3.240258,-3.234375 v -0.5 c 0,2.737222 -0.300009,3.25071 -3.240258,3.236328 H 8.0195857 3.7793209 C 0.8390714,14.01606 0.5371092,13.502556 0.5371092,10.765334 v 0.5 c 0,2.737222 0.3019622,3.248773 3.2422117,3.234375 h 4.2402648 z"
     style="color:#000000;display:inline;overflow:visible;visibility:visible;opacity:0.2;fill:#030000;fill-opacity:1;fill-rule:nonzero;stroke:none;stroke-width:0.33252978;marker:none;enable-background:accumulate"
     inkscape:connector-curvature="0" />
</svg>
